X:1424
T:Es kommt ein Schiff, geladen
C:anon.
O:Germany
N:Written down c. 1600
R:Christmas hymn
Z:Transcribed by Frank Nordberg - http://www.musicaviva.com
F:http://abc.musicaviva.com/tunes/germany/es-kommt-ein-schiff-geladen.abc
M:3/4
L:1/4
Q:1/4=160
K:Dm
D|D2D|E2E|FGA|A2A|
w:Es kommt ein Schiff, ge-la---den bis
G2G|D2E|F3-|F z F|
w:an sein H\"och-sten Bord,_ tr\"agt
A2c|d2d|c2A|F2G|
w:Got-tes Sohn voll Gna--den, des
A2G|F2E|D3-|D z|]
w:Va-ters e-wigs Wort._
W:
W:Es kommt ein Schiff, geladen
W:bis an sein H\"ochsten Bord,
W:tr\"agt Gottes Sohn voll Gnaden,
W:des Vaters ewigs Wort.
W:
W:
W:  From Musica Viva - http://www.musicaviva.com
W:  the Internet center for free sheet music downloads.


